Flat Remix Dark/apps/scalable/distributor-logo-elementary.svg

<svg xmlns="http://www.w3.org/2000/svg" width="48" height="48">
 <linearGradient id="a" x1="399.571" x2="399.571" y1="545.798" y2="517.798" gradientUnits="userSpaceOnUse">
  <stop offset="0" stop-color="#3889e9"/>
  <stop offset="1" stop-color="#5ea5fb"/>
 </linearGradient>
 <linearGradient id="b" x1="399.994" x2="399.994" y1="545.139" y2="518.139" gradientUnits="userSpaceOnUse">
  <stop offset="0" stop-color="#0a80fd"/>
  <stop offset="1" stop-color="#56c5fa"/>
 </linearGradient>
 <g stroke-width="1.3" transform="matrix(1.660988544306 0 0 1.660988544306 -641.110704085407 -859.155010226905)">
  <circle fill="url(#b)" cx="400.571" cy="531.798" r="14"/>
  <circle fill="url(#a)" cx="400.571" cy="531.798" r="0"/>
 </g>
 <path fill="#fff" stroke="#fff" stroke-width="1.578" opacity=".85" d="m64 940.36218c-26.509667 0-48 21.49034-48 48 0 26.50972 21.490333 48.00002 48 48.00002 26.509664 0 48-21.4903 48-48.00002 0-26.50966-21.490336-48-48-48zm0 4c20.15479 0 37.14462 13.55176 42.355 32.04-4.4877 9.25637-10.873381 17.59038-18.650002 24.32502-3.735795 3.2352-7.814534 6.1193-12.32 8.15-4.505465 2.0307-9.461145 3.1829-14.394998 2.9-3.706902-.2126-7.368725-1.2452-10.615-3.045 8.603218-4.6618 16.365742-10.87737 22.720002-18.32002 4.170803-4.88521 7.819942-10.43709 9.224998-16.705.702528-3.13395.821581-6.4161.164998-9.56-.656582-3.1439-2.110188-6.1399-4.309996-8.48-2.149082-2.28613-4.97033-3.90553-7.995002-4.74-3.024672-.83446-6.24345-.89907-9.33-.335-6.173101 1.12814-11.684554 4.71584-16.105 9.17-7.79168 7.8511-12.608581 18.92915-11.725 29.955.441789 5.51292 2.289248 10.93012 5.455 15.46502.706642 1.0122 1.483501 1.9764 2.315 2.89-4.611828 1.614-9.386995 2.7629-14.23 3.41-4.15805-6.7188-6.56-14.638-6.56-23.12002 0-24.30053 19.69947-44 44-44zm .28 8.89c3.093024.004 6.207066.94057 8.675002 2.805 2.223488 1.67977 3.871027 4.06951 4.804998 6.695s1.173658 5.47662.855002 8.245c-.637319 5.53677-3.430458 10.61442-6.804999 15.05-5.975053 7.85375-13.917093 14.13972-22.750003 18.54002-.904118.4504-1.822565.8785-2.745 1.29-1.921973-1.6819-3.569314-3.6768-4.825-5.90002-2.623798-4.64556-3.489056-10.16402-2.98-15.475.509056-5.31097 2.331648-10.42962 4.78-15.17 2.838755-5.49625 6.70822-10.70239 12.125-13.69 2.70839-1.4938 5.771973-2.39419 8.865-2.39zm43.325 29.22c.25778 1.9268.395 3.89265.395 5.89 0 24.30052-19.699469 44.00002-44 44.00002-13.647425 0-25.844438-6.2128-33.915-15.965 4.98138-1.1314 9.850072-2.7565 14.52-4.825 2.042194 1.5553 4.297558 2.8309 6.695 3.75 6.904163 2.6469 14.742694 2.2639 21.730003-.155 6.987303-2.4189 13.183469-6.7606 18.584999-11.81 6.434617-6.01522 11.859848-13.10515 15.989998-20.88502z" transform="matrix(.338562787264 0 0 .338562787264 2.443125595056 -310.264805315542)"/>
</svg>

<svg xmlns="http://www.w3.org/2000/svg" xmlns:xlink="http://www.w3.org/1999/xlink" width="384pt" height="384pt" version="1.1" viewBox="0 0 384 384">
 <defs>
  <linearGradient id="linear0" x1="399.994" x2="399.994" y1="545.139" y2="518.139" gradientTransform="matrix(13.287908,0,0,13.287908,-5128.885633,-6873.240082)" gradientUnits="userSpaceOnUse">
   <stop offset="0" style="stop-color:rgb(3.921569%,50.196078%,99.215686%)"/>
   <stop offset="1" style="stop-color:rgb(33.72549%,77.254902%,98.039216%)"/>
  </linearGradient>
  <filter id="alpha" width="100%" height="100%" x="0%" y="0%" filterUnits="objectBoundingBox">
   <feColorMatrix in="SourceGraphic" type="matrix" values="0 0 0 0 1 0 0 0 0 1 0 0 0 0 1 0 0 0 1 0"/>
  </filter>
  <mask id="mask0">
   <g filter="url(#alpha)">
    <rect width="384" height="384" x="0" y="0" style="fill:rgb(0%,0%,0%);fill-opacity:0.85098"/>
   </g>
  </mask>
  <clipPath id="clip1">
   <rect width="384" height="384" x="0" y="0"/>
  </clipPath>
  <g id="surface5" clip-path="url(#clip1)">
   <path style="fill:rgb(100%,100%,100%);stroke-width:1.578;stroke:rgb(100%,100%,100%)" d="M 64.000544 940.36247 C 37.489698 940.36247 16.000654 961.852956 16.000654 988.36236 C 16.000654 1014.871764 37.489698 1036.36225 64.000544 1036.36225 C 90.509948 1036.36225 112.000434 1014.871764 112.000434 988.36236 C 112.000434 961.852956 90.509948 940.36247 64.000544 940.36247 Z M 64.000544 944.36174 C 84.154094 944.36174 101.144861 957.91426 106.355594 976.402049 C 101.867412 985.658202 95.481272 993.992778 87.704834 1000.726493 C 83.96949 1003.962829 79.890899 1006.845822 75.385411 1008.877907 C 70.879922 1010.90855 65.924462 1012.059439 60.990636 1011.776765 C 57.282694 1011.564759 53.620903 1010.532131 50.374471 1008.732243 C 58.978742 1004.070995 66.740758 997.855037 73.095169 990.411752 C 77.266062 985.52696 80.914873 979.974422 82.319593 973.706544 C 83.021953 970.572605 83.141657 967.291559 82.485448 964.147525 C 81.827797 961.00349 80.375484 958.006562 78.17466 955.667284 C 76.025755 953.381369 73.204777 951.761759 70.180447 950.926715 C 67.154674 950.093113 63.937086 950.028213 60.849298 950.59212 C 54.676606 951.719935 49.165892 955.308172 44.745495 959.761741 C 36.953193 967.613174 32.136186 978.690848 33.020265 989.716603 C 33.461584 995.230201 35.309065 1000.647171 38.474733 1005.181503 C 39.181419 1006.19394 39.958775 1007.158784 40.789492 1008.071707 C 36.178722 1009.685549 31.403539 1010.834997 26.560572 1011.482552 C 22.402658 1004.76326 19.999924 996.844043 19.999924 988.36236 C 19.999924 964.060992 39.699175 944.36174 64.000544 944.36174 Z M 64.280334 953.25157 C 67.372449 953.255896 70.487639 954.193338 72.955274 956.056683 C 75.179173 957.736867 76.826186 960.126622 77.759301 962.7529 C 78.693858 965.377736 78.933266 968.229001 78.614536 970.996617 C 77.977076 976.53329 75.184942 981.611339 71.810153 986.047601 C 65.835045 993.900476 57.892752 1000.187103 49.060611 1004.587309 C 48.15634 1005.037281 47.237647 1005.46562 46.314628 1005.876652 C 44.393594 1004.195026 42.745139 1002.200439 41.49041 999.976539 C 38.865574 995.331156 38.000243 989.813231 38.509346 984.501543 C 39.018449 979.191298 40.841412 974.072867 43.290297 969.332297 C 46.128582 963.836006 49.998052 958.6296 55.415022 955.642767 C 58.123507 954.148629 61.186777 953.248685 64.280334 953.25157 Z M 107.604554 982.472343 C 107.862711 984.399146 107.999722 986.364889 107.999722 988.36236 C 107.999722 1012.662286 88.30047 1032.361538 64.000544 1032.361538 C 50.352838 1032.361538 38.156002 1026.149907 30.085352 1016.39763 C 35.066772 1015.265489 39.935699 1013.64011 44.6056 1011.57197 C 46.64778 1013.128123 48.901967 1014.403043 51.300375 1015.321736 C 58.204271 1017.969648 66.042724 1017.586018 73.030269 1015.167419 C 80.017814 1012.748819 86.213581 1008.406302 91.614687 1003.357098 C 98.049862 997.341608 103.475485 990.251665 107.604554 982.472343 Z M 107.604554 982.472343" transform="matrix(2.708502,0,0,2.708502,19.545005,-2482.118443)"/>
  </g>
 </defs>
 <g>
  <path style="fill:url(#linear0)" d="M 379.894531 193.242188 C 379.894531 295.984375 296.605469 379.273438 193.863281 379.273438 C 91.125 379.273438 7.835938 295.984375 7.835938 193.242188 C 7.835938 90.5 91.125 7.210938 193.863281 7.210938 C 296.605469 7.210938 379.894531 90.5 379.894531 193.242188 Z M 379.894531 193.242188"/>
  <use mask="url(#mask0)" xlink:href="#surface5"/>
 </g>
</svg>
